X:52
M:12/8
L:1/8
K:D
| A3 ABA B2A G2B | AGE G2E D2E G2E | 
| d2A AGA B2A G2B | AGE G2E D2E G2E | 
d2A AGA B2A G2B | AGE G2E D3 D3 :|| 

